synths/sBCH.svg

<svg width="42" height="42" viewBox="0 0 42 42" fill="none" xmlns="http://www.w3.org/2000/svg">
<g clip-path="url(#clip0_7277_57964)">
<mask id="mask0_7277_57964" style="mask-type:alpha" maskUnits="userSpaceOnUse" x="0" y="0" width="42" height="42">
<circle cx="21" cy="21" r="21" fill="url(#paint0_linear_7277_57964)"/>
</mask>
<g mask="url(#mask0_7277_57964)">
<circle cx="21" cy="21" r="21" fill="#34EDB3"/>
<circle cx="21" cy="21" r="18.2" fill="white"/>
</g>
<circle cx="21" cy="21" r="16.1" fill="#06061B"/>
<g clip-path="url(#clip1_7277_57964)">
<path d="M21 37.2676C29.9844 37.2676 37.2676 29.9844 37.2676 21C37.2676 12.0157 29.9844 4.73242 21 4.73242C12.0157 4.73242 4.73242 12.0157 4.73242 21C4.73242 29.9844 12.0157 37.2676 21 37.2676Z" fill="#8DC351"/>
<path d="M26.2937 15.4426C25.5047 13.4377 23.5262 13.2567 21.2223 13.704L20.4018 10.844L18.6611 11.3432L19.4603 14.129C19.0027 14.2592 18.5371 14.4036 18.0745 14.5459L17.2713 11.7418L15.5316 12.24L16.3501 15.1C15.976 15.2159 15.6079 15.3298 15.247 15.4335L15.2439 15.4233L12.8424 16.1116L13.3762 17.9723C13.3762 17.9723 14.6552 17.5778 14.64 17.6083C15.3456 17.4059 15.6923 17.7496 15.86 18.0841L16.7954 21.3417C16.8432 21.3285 16.9073 21.3122 16.9825 21.301L16.7985 21.3539L18.107 25.919C18.1395 26.1498 18.1111 26.5412 17.619 26.6836C17.6464 26.6968 16.3521 27.0455 16.3521 27.0455L16.6033 29.2244L18.8685 28.5737C19.2905 28.4547 19.7073 28.3429 20.115 28.228L20.9457 31.1206L22.6843 30.6224L21.8638 27.7603C22.3302 27.6365 22.7952 27.5077 23.2588 27.3739L24.0742 30.2238L25.8158 29.7246L24.9882 26.8371C27.8666 25.8295 29.7038 24.5047 29.17 21.6823C28.7409 19.4109 27.4172 18.7216 25.6409 18.7989C26.5031 17.9956 26.8742 16.9098 26.2937 15.4437V15.4426ZM25.6328 22.3259C26.253 24.4885 22.481 25.3039 21.3016 25.6434L20.2025 21.8104C21.3819 21.4718 24.9852 20.0718 25.6318 22.3269L25.6328 22.3259ZM23.272 17.1507C23.8352 19.1181 20.6824 19.7739 19.6992 20.0555L18.7028 16.5793C19.685 16.2977 22.6833 15.1 23.272 17.1518V17.1507Z" fill="white"/>
</g>
</g>
<defs>
<linearGradient id="paint0_linear_7277_57964" x1="21" y1="0" x2="21" y2="61.4091" gradientUnits="userSpaceOnUse">
<stop stop-color="#08021E"/>
<stop offset="1" stop-color="#1F0777"/>
</linearGradient>
<clipPath id="clip0_7277_57964">
<rect width="42" height="42" fill="white"/>
</clipPath>
<clipPath id="clip1_7277_57964">
<rect width="32.5352" height="32.5352" fill="white" transform="translate(4.73242 4.73242)"/>
</clipPath>
</defs>
</svg>

<svg xmlns="http://www.w3.org/2000/svg" width="42" height="42" fill="none"><g clip-path="url(#a)"><mask id="c" width="42" height="42" x="0" y="0" maskUnits="userSpaceOnUse" style="mask-type:alpha"><circle cx="21" cy="21" r="21" fill="url(#b)"/></mask><g mask="url(#c)"><circle cx="21" cy="21" r="21" fill="#34EDB3"/><circle cx="21" cy="21" r="18.2" fill="#fff"/></g><circle cx="21" cy="21" r="16.1" fill="#06061B"/><g clip-path="url(#d)"><path fill="#8DC351" d="M21 37.268c8.984 0 16.268-7.284 16.268-16.268 0-8.984-7.284-16.268-16.268-16.268-8.984 0-16.268 7.284-16.268 16.268 0 8.984 7.284 16.268 16.268 16.268Z"/><path fill="#fff" d="M26.294 15.443c-.79-2.005-2.768-2.186-5.072-1.739l-.82-2.86-1.74.5.798 2.785c-.457.13-.923.275-1.386.417l-.803-2.804-1.74.498.82 2.86c-.375.116-.743.23-1.104.334l-.003-.01-2.402.688.534 1.86s1.28-.394 1.264-.364c.706-.202 1.052.142 1.22.476l.935 3.258c.048-.014.112-.03.188-.041l-.184.053 1.308 4.565c.033.23.004.622-.488.765.027.013-1.267.361-1.267.361l.251 2.18 2.265-.651c.423-.12.84-.231 1.247-.346l.83 2.893 1.74-.499-.821-2.862a67.26 67.26 0 0 0 1.395-.386l.815 2.85 1.742-.5-.828-2.887c2.879-1.008 4.716-2.332 4.182-5.155-.43-2.271-1.753-2.96-3.53-2.883.863-.803 1.234-1.89.654-3.355v-.001Zm-.661 6.883c.62 2.162-3.152 2.978-4.331 3.317l-1.1-3.833c1.18-.338 4.783-1.738 5.43.517v-.001Zm-2.361-5.175c.563 1.967-2.59 2.623-3.573 2.904l-.996-3.476c.982-.281 3.98-1.479 4.569.573v-.001Z"/></g></g><defs><clipPath id="a"><path fill="#fff" d="M0 0h42v42H0z"/></clipPath><clipPath id="d"><path fill="#fff" d="M4.732 4.732h32.535v32.535H4.732z"/></clipPath><linearGradient id="b" x1="21" x2="21" y1="0" y2="61.409" gradientUnits="userSpaceOnUse"><stop stop-color="#08021E"/><stop offset="1" stop-color="#1F0777"/></linearGradient></defs></svg>
